X: 1
T: Karen's Kitchen
C: David Kaynor
M: 4/4
L: 1/4
Z: Contributed 2017-05-21 18:46:01 by Bruce Sagan sagan@math.msu.edu
K: Gm
D | G G G F/E/ | D D D B/c/ | d d c B/c/ | d3 D|
G G G F/E/ | D D D d/c/ | B A/G/ A F | G3 :|
|: d | g g g f/=e/ | f f f e/d/ | e e e d/c/ | d2 d2 |
c c/B/ A G/A/ | B/c/ B/A/ G d/c/ | B A/G/ A F | G3 :||

%%sep 1 1 500

